CONST robtarget Target_1:=[[900,-500,200],[0.5,0,0.866025404,0],[0,0,0,0],[9E9,9E9,9E9,9E9,9E9,9E9]];
CONST robtarget Target_11:=[[900,-250,200],[0.5,0,0.866025404,0],[0,0,0,0],[9E9,9E9,9E9,9E9,9E9,9E9]];
CONST robtarget Target_21:=[[900,0,200],[0.5,0,0.866025404,0],[0,0,0,0],[9E9,9E9,9E9,9E9,9E9,9E9]];
CONST robtarget Target_31:=[[900,250,200],[0.5,0,0.866025404,0],[0,-2,1,0],[9E9,9E9,9E9,9E9,9E9,9E9]];
CONST robtarget Target_41:=[[900,500,200],[0.5,0,0.866025404,0],[0,0,0,0],[9E9,9E9,9E9,9E9,9E9,9E9]];
CONST robtarget Target_51:=[[900,500,500],[0.5,0,0.866025404,0],[0,0,0,0],[9E9,9E9,9E9,9E9,9E9,9E9]];
CONST robtarget Target_61:=[[900,250,500],[0.5,0,0.866025404,0],[0,0,0,0],[9E9,9E9,9E9,9E9,9E9,9E9]];
CONST robtarget Target_71:=[[900,0,500],[0.5,0,0.866025404,0],[0,0,0,0],[9E9,9E9,9E9,9E9,9E9,9E9]];
CONST robtarget Target_81:=[[900,-250,500],[0.5,0,0.866025404,0],[0,0,0,0],[9E9,9E9,9E9,9E9,9E9,9E9]];
CONST robtarget Target_91:=[[900,-500,500],[0.5,0,0.866025404,0],[0,0,0,0],[9E9,9E9,9E9,9E9,9E9,9E9]];
CONST robtarget Target_101:=[[900,-500,800],[0.5,0,0.866025404,0],[0,0,0,0],[9E9,9E9,9E9,9E9,9E9,9E9]];
CONST robtarget Target_111:=[[900,-250,800],[0.5,0,0.866025404,0],[0,0,0,0],[9E9,9E9,9E9,9E9,9E9,9E9]];
CONST robtarget Target_121:=[[900,0,800],[0.5,0,0.866025404,0],[0,0,0,0],[9E9,9E9,9E9,9E9,9E9,9E9]];
CONST robtarget Target_131:=[[900,250,800],[0.5,0,0.866025404,0],[0,0,0,0],[9E9,9E9,9E9,9E9,9E9,9E9]];
CONST robtarget Target_141:=[[900,500,800],[0.5,0,0.866025404,0],[0,0,0,0],[9E9,9E9,9E9,9E9,9E9,9E9]];
CONST robtarget Target_151:=[[900,500,1100],[0.5,0,0.866025404,0],[0,0,0,0],[9E9,9E9,9E9,9E9,9E9,9E9]];
CONST robtarget Target_161:=[[900,250,1100],[0.5,0,0.866025404,0],[0,0,0,0],[9E9,9E9,9E9,9E9,9E9,9E9]];
CONST robtarget Target_171:=[[900,0,1100],[0.5,0,0.866025404,0],[0,0,0,0],[9E9,9E9,9E9,9E9,9E9,9E9]];
CONST robtarget Target_181:=[[900,-250,1100],[0.5,0,0.866025404,0],[0,0,0,0],[9E9,9E9,9E9,9E9,9E9,9E9]];
CONST robtarget Target_201:=[[900,-500,1100],[0.5,0,0.866025404,0],[0,0,0,0],[9E9,9E9,9E9,9E9,9E9,9E9]];
CONST robtarget Target_211:=[[600,-500,1100],[0.5,0,0.866025404,0],[0,0,0,0],[9E9,9E9,9E9,9E9,9E9,9E9]];
CONST robtarget Target_221:=[[600,-250,1100],[0.5,0,0.866025404,0],[0,0,0,0],[9E9,9E9,9E9,9E9,9E9,9E9]];
CONST robtarget Target_231:=[[600,0,1100],[0.5,0,0.866025404,0],[0,0,0,0],[9E9,9E9,9E9,9E9,9E9,9E9]];
CONST robtarget Target_241:=[[600,250,1100],[0.5,0,0.866025404,0],[0,0,0,0],[9E9,9E9,9E9,9E9,9E9,9E9]];
CONST robtarget Target_251:=[[600,500,1100],[0.5,0,0.866025404,0],[0,0,0,0],[9E9,9E9,9E9,9E9,9E9,9E9]];
CONST robtarget Target_261:=[[600,500,800],[0.5,0,0.866025404,0],[0,0,0,0],[9E9,9E9,9E9,9E9,9E9,9E9]];
CONST robtarget Target_271:=[[600,250,800],[0.5,0,0.866025404,0],[0,0,0,0],[9E9,9E9,9E9,9E9,9E9,9E9]];
CONST robtarget Target_281:=[[600,0,800],[0.5,0,0.866025404,0],[0,0,0,0],[9E9,9E9,9E9,9E9,9E9,9E9]];
CONST robtarget Target_291:=[[600,-250,800],[0.5,0,0.866025404,0],[0,0,0,0],[9E9,9E9,9E9,9E9,9E9,9E9]];
CONST robtarget Target_301:=[[600,-500,800],[0.5,0,0.866025404,0],[0,0,0,0],[9E9,9E9,9E9,9E9,9E9,9E9]];
CONST robtarget Target_311:=[[600,-500,500],[0.5,0,0.866025404,0],[0,0,0,0],[9E9,9E9,9E9,9E9,9E9,9E9]];
CONST robtarget Target_321:=[[600,-250,500],[0.5,0,0.866025404,0],[0,0,0,0],[9E9,9E9,9E9,9E9,9E9,9E9]];
CONST robtarget Target_331:=[[600,0,500],[0.5,0,0.866025404,0],[0,0,0,0],[9E9,9E9,9E9,9E9,9E9,9E9]];
CONST robtarget Target_341:=[[600,250,500],[0.5,0,0.866025404,0],[0,0,0,0],[9E9,9E9,9E9,9E9,9E9,9E9]];
CONST robtarget Target_351:=[[600,500,500],[0.5,0,0.866025404,0],[0,0,0,0],[9E9,9E9,9E9,9E9,9E9,9E9]];
CONST robtarget Target_361:=[[600,500,200],[0.5,0,0.866025404,0],[0,0,0,0],[9E9,9E9,9E9,9E9,9E9,9E9]];
CONST robtarget Target_371:=[[600,250,200],[0.5,0,0.866025404,0],[0,0,-1,1],[9E9,9E9,9E9,9E9,9E9,9E9]];
CONST robtarget Target_381:=[[600,0,200],[0.5,0,0.866025404,0],[0,0,0,0],[9E9,9E9,9E9,9E9,9E9,9E9]];
CONST robtarget Target_391:=[[600,-250,200],[0.5,0,0.866025404,0],[0,0,0,0],[9E9,9E9,9E9,9E9,9E9,9E9]];
CONST robtarget Target_401:=[[600,-500,200],[0.5,0,0.866025404,0],[0,0,0,0],[9E9,9E9,9E9,9E9,9E9,9E9]];

